Adwaita++/actions/22/transform-shear-right.svg

<svg height="22" viewBox="0 0 22 22" width="22" xmlns="http://www.w3.org/2000/svg">
  <path d="m5 1v4h8.246094l-1.111328 5h2.865234v-9zm-2 5-2 9h9l2-9z" fill="#444" transform="translate(3 3)"/>
</svg>

<svg xmlns="http://www.w3.org/2000/svg" width="22" height="22" viewBox="0 0 22 22">
 <defs>
  <style id="current-color-scheme" type="text/css">
   .ColorScheme-Text { color:#444444; } .ColorScheme-Highlight { color:#4285f4; }
  </style>
 </defs>
 <path style="fill:currentColor" class="ColorScheme-Text" d="M 5 1 L 5 5 L 13.246094 5 L 12.134766 10 L 15 10 L 15 1 L 5 1 z M 3 6 L 1 15 L 10 15 L 12 6 L 3 6 z" transform="translate(3 3)"/>
</svg>
